vendor/shopware/storefront/Resources/app/storefront/dist/assets/icon/solid/pencil-paper.svg

<svg xmlns="http://www.w3.org/2000/svg" width="16" height="16" viewBox="0 0 16 16">
  <path fill="#758CA3" fill-rule="evenodd" d="M6,2 L6,5 C6,5.55228475 5.55228475,6 5,6 L2,6 L2,14 L10,14 L10,11.4142136 L8.70710678,12.7071068 C8.5195704,12.8946432 8.26521649,13 8,13 L5,13 C4.44771525,13 4,12.5522847 4,12 L4,9 C4,8.73478351 4.10535684,8.4804296 4.29289322,8.29289322 L10,2.58578644 L10,2 L6,2 Z M4,2.53512878 C3.39274399,2.88640741 2.88640741,3.39274399 2.53512878,4 L4,4 L4,2.53512878 Z M12,9.41421356 L12,14 C12,15.1045695 11.1045695,16 10,16 L2,16 C0.8954305,16 2.22044605e-16,15.1045695 2.22044605e-16,14 L2.22044605e-16,6 C-1.77635684e-16,2.6862915 2.6862915,5.32907052e-16 6,0 L10,0 C10.7532185,-1.51414738e-16 11.4091867,0.416377957 11.7502878,1.03151709 C12.0814927,0.946453145 12.4477921,1.03357852 12.7071068,1.29289322 L15.7071068,4.29289322 C16.0976311,4.68341751 16.0976311,5.31658249 15.7071068,5.70710678 L12,9.41421356 Z M7.58578644,11 L13.5857864,5 L12,3.41421356 L6,9.41421356 L6,11 L7.58578644,11 Z"/>
</svg>

<svg xmlns="http://www.w3.org/2000/svg" width="16" height="16" viewBox="0 0 16 16"><path fill="#758CA3" fill-rule="evenodd" d="M6 2v3c0 .5523-.4477 1-1 1H2v8h8v-2.5858l-1.2929 1.293A1 1 0 0 1 8 13H5c-.5523 0-1-.4477-1-1V9a1 1 0 0 1 .2929-.7071L10 2.5858V2H6zm-2 .5351A4.0196 4.0196 0 0 0 2.5351 4H4V2.5351zm8 6.8791V14c0 1.1046-.8954 2-2 2H2c-1.1046 0-2-.8954-2-2V6c0-3.3137 2.6863-6 6-6h4c.7532 0 1.4092.4164 1.7503 1.0315a.9995.9995 0 0 1 .9568.2614l3 3c.3905.3905.3905 1.0237 0 1.4142L12 9.4142zM7.5858 11l6-6L12 3.4142l-6 6V11h1.5858z"/></svg>
